X:0481
T:Lillie Bulera.
M:6/8
L:1/8
Q:3/8=108
I: :: :: :: ::
Z:Jack Campin * www.campin.me.uk * 2009
K:G
 D| G>AG        B2B     | A>BA      c3 |(B/c/d).G c2B     |A>GF G2::
 d| g2f         g2d     |=fgf       e2d| d>ef     g>fe    |dcB  A2
 d| e>dc        Bcd     | e>dc      Bcd|(e/f/g)G  c2B     |AGF  G2::
 D|(G/A/B).B    B2g     | aAB       c2e| d>BG    (Ec).B   |A>GF G2::
 d|(g/f/g/a/).g gde     |=f>gf     Te2d| B>cd    (e/f/g).e|dBG  A2
=f|(ec/e/).g   (dB/d/).g|(ec/e/).g TdBd|(e/f/g)G  EcB     |A>GF G2:|
<end>
<start>
